X: 34669
T: Road To Castleisland, The
R: reel
M: 4/4
K: Gmajor
|:gfde fgaf|gfdc AdcA|gfde fgaf|gfde f3f|
gfde f2 af|gfdc AdcA|GFDE FGAB|1 c2 AF G3g:|2 c2 AF G3A||
|:B3d cAdc|AGFG ABcA|ABBd cAdc|AGFG AG G2|
[1 B3d cAdc|AGFG ABcA|G2 A/B/c dBcA|A2 dc AG G2:|
[2 B3d cAdc|ADFG ABcA|G2 A/B/c dBcA|A2 dc AG G2||

